X: 16
T: My Darling I Am Fond of You
M: 3/4
L: 1/8
B: "O'Neill's 16"
N: "Tenderly" "collected by F. O'Neill"
Z: "Transcribed by Norbert Paap, norbertp@bdu.uva.nl"
K:D
d2 | A4-B2 | G4 A2 | F6 | E4-D2 |\
D4-E2 | F4-G2 | A4-d2 | d4-c2 |
A4-B2 | G4-A2 | F6 | E4-D2 |\
D4-E2 | F4-A2 | E4-D2 | D4 ||
D2 | F4 G2 | A2 B2 c2 | d4 e2 | f4 e2 |\
d4 c2 | A4-G2 | A4-d2 | d4-c2 |
A4-B2 | G4-A2 | F6 | E4 D2 |\
D4 E2 | F4-G2 | A4-d2 | d4-c2 |
A4 B2 | G4-A2 | F6 | E4-D2 |\
D4 E2 | F4-A2 | E4-D2 | D4 |:|


